X:39
T:The Pigeon on the Gate
R:reel
O:Ireland
M:C
L:1/8
K:D
dc | "Em" BE ~E2 BEdE | BE          ~E2   BAFE | "D" D2     (3(FED)  ADFE | DEFA          BAFA |
     "Em" BE ~E2 BEdE | "Em" BE     ~E2   BAFE | "D" D2        FE    dfec | "A" dBAF        E2 :|
EA | "Em" Beed   efed | "(G)" (3(Bcd) ef  gfed | "D" Bcde            dcdB | "(Bm)" AF ~F2 DEFA |
     "Em" Be ~e2 efed | "(G)" (3(Bcd) ef g2 fg | "D" (3(agf) ((3gfe) fdec | "A" dBAF        E2 :|
